X:152
T:Si le roi m'avait donn\'e
R:polka
C:Eustache Du Caurroy (1549-1609), France
D:Tap Room Trio
Z:id:hn-polka-152
M:2/4
L:1/8
K:D
FA AF/A/ | BA A2 | d>e fe |1 dc dd/A/ :|2 dc d>f ||
|: gf ef | gf e>f | gf ed | cB A>G |
FA A/A/A/A/ | BA A>c | d>e fe |1 dc d>f :|2 dc d>A ||

